X:1
T:Piper's Wedding
M:6/8
L:1/8
Q:80
C:
S:March 6/8
K:HP
|: a | \
A2d{gde}dcd | \
{g}B2d{e}A3 | \
{g}A2d{gde}dcd |
{g}f2a{ef}e2a | \
A2d{gde}dcd | \
{g}B2d{e}A2g |
{a}fd{G}d{g}ec{G}c | \
{g}ed{G}d{gdG}d2 :: \
a |
fd{G}dad{G}d | \
{gcd}c2e{g}A2a | \
fd{G}dad{G}d |
{gfg}f2a{ef}e2a | \
fd{G}dad{G}d | \
{gcd}c2e{g}A2g |
{a}fd{G}d{g}ec{G}c | \
{g}ed{G}d{gdG}d2 :|
